P3
8 8
255
174 164 172   204 188 184   184 174 180   224 204 194   180 168 178   212 194 188   188 178 182   232 210 196
198 184 182   164 156 166   216 196 188   176 166 176   222 202 192   170 162 172   208 190 186   182 172 178
168 160 170   214 194 188   178 168 176   230 208 196   186 174 180   218 198 190   174 164 174   204 188 184
220 198 190   176 166 176   200 186 184   166 158 168   210 192 186   184 172 178   226 206 194   172 164 174
180 168 178   224 204 192   170 160 170   206 190 186   188 176 182   234 212 198   176 166 176   214 194 188
208 190 186   172 162 172   222 202 192   184 174 180   198 184 182   168 158 168   218 198 190   178 168 176
170 160 170   216 196 188   184 172 178   228 208 196   174 164 174   208 192 186   190 176 182   224 204 192
232 210 198   180 168 178   204 188 184   168 160 170   220 200 190   176 166 176   212 194 188   172 162 172
